X:21171 
T:RED ROSE, The 
B:DMI.0315
Z:Nordberg/Black
R:jig
%Q:1/4=160
M:6/8
L:1/8
K:G
d/B/|GAG GBd|geg e2d|ege dBG|ABA A2B|
GAG GBd|gfg e2d|ege dBG|AGG G2:|
d|gab bag|fag ged|ege dBG|ABA A2d|
gab bag|gfg e2d|ege dBG|AGG G2:|

%%%

